X:31
T:
S:Efter skomakaren Johan Björkander i Rone.
M:3/4
L:1/8
K:D
FG|A2 A G F G|A2 A2 d2|c4 E2|G4 EF|
w:I_ Stock-holm där har jag va-rit rätt nu, rätt nu. Sju_
G3 F E F|G2 G2 e2|d4 F2|A4 FG|A2 A G F G|
w:år de ha-va fa-rit som tu, som tu. o.~s.~v.
A2 A2 f2|e4 d2|B4 c2|d2 d c d e|d2 F2 B2|A2 z2 C2|D4|]
